packages/dnb-ui-lib/assets/icons/pay_from.svg

<svg width="16" height="16" viewBox="0 0 16 16" fill="none" xmlns="http://www.w3.org/2000/svg">
<path d="M10.1937 1.0621L10.5162 1.73925V1.73925L10.1937 1.0621ZM11.0768 1.45379L10.3585 1.6693V1.6693L11.0768 1.45379ZM10.2273 8.58401C9.81306 8.58401 9.47727 8.91979 9.47727 9.33401C9.47727 9.74822 9.81306 10.084 10.2273 10.084V8.58401ZM12.8788 10.3946C12.5859 10.6875 12.5859 11.1624 12.8788 11.4552C13.1717 11.7481 13.6465 11.7481 13.9394 11.4552L12.8788 10.3946ZM15 9.33401L15.5303 9.86434C15.8232 9.57144 15.8232 9.09657 15.5303 8.80368L15 9.33401ZM13.9394 7.21277C13.6465 6.91987 13.1717 6.91987 12.8788 7.21277C12.5859 7.50566 12.5859 7.98053 12.8788 8.27343L13.9394 7.21277ZM12.6782 4.72484C13.0523 4.90258 13.4997 4.74336 13.6774 4.36921C13.8552 3.99507 13.696 3.54768 13.3218 3.36995L12.6782 4.72484ZM13.6442 15.1063C13.9791 14.8626 14.053 14.3935 13.8092 14.0586C13.5654 13.7237 13.0963 13.6499 12.7614 13.8937L13.6442 15.1063ZM12.4545 13.9931H2.27273V15.4931H12.4545V13.9931ZM1.75 13.4704V5.19764H0.25V13.4704H1.75ZM2.27273 13.9931C1.98403 13.9931 1.75 13.7591 1.75 13.4704H0.25C0.25 14.5875 1.15561 15.4931 2.27273 15.4931V13.9931ZM2.27273 3.17492C1.15561 3.17492 0.25 4.08052 0.25 5.19764H1.75C1.75 4.90895 1.98403 4.67492 2.27273 4.67492V3.17492ZM2.27273 4.67492H4.18182V3.17492H2.27273V4.67492ZM4.50427 4.60206L10.5162 1.73925L9.87127 0.384957L3.85937 3.24777L4.50427 4.60206ZM4.18182 4.67492H11.8182V3.17492H4.18182V4.67492ZM11.8182 4.67492H12.4545V3.17492H11.8182V4.67492ZM10.3585 1.6693L11.0998 4.14043L12.5366 3.7094L11.7952 1.23828L10.3585 1.6693ZM10.5162 1.73925C10.4533 1.7692 10.3785 1.73603 10.3585 1.6693L11.7952 1.23828C11.551 0.424266 10.6386 0.0195743 9.87127 0.384957L10.5162 1.73925ZM13.9394 11.4552L15.5303 9.86434L14.4697 8.80368L12.8788 10.3946L13.9394 11.4552ZM15.5303 8.80368L13.9394 7.21277L12.8788 8.27343L14.4697 9.86434L15.5303 8.80368ZM10.2273 10.084H15V8.58401H10.2273V10.084ZM12.4545 4.67492C12.5361 4.67492 12.6113 4.69306 12.6782 4.72484L13.3218 3.36995C13.0581 3.24465 12.7634 3.17492 12.4545 3.17492V4.67492ZM12.4545 15.4931C12.8981 15.4931 13.3103 15.3495 13.6442 15.1063L12.7614 13.8937C12.6753 13.9563 12.5703 13.9931 12.4545 13.9931V15.4931Z" fill="black"/>
</svg>

<svg width="16" height="16" viewBox="0 0 16 16" fill="none" xmlns="http://www.w3.org/2000/svg"><path d="M10.194 1.062l.322.677-.322-.677zm.883.392l-.719.215.719-.215zm-.85 7.13a.75.75 0 100 1.5v-1.5zm2.652 1.81a.75.75 0 101.06 1.061l-1.06-1.06zM15 9.335l.53.53a.75.75 0 000-1.06l-.53.53zm-1.06-2.121a.75.75 0 10-1.061 1.06l1.06-1.06zm-1.262-2.488a.75.75 0 10.644-1.355l-.644 1.355zm.966 10.381a.75.75 0 10-.883-1.212l.883 1.212zm-1.19-1.113H2.274v1.5h10.181v-1.5zM1.75 13.47V5.198H.25v8.272h1.5zm.523.523a.523.523 0 01-.523-.523H.25c0 1.117.906 2.023 2.023 2.023v-1.5zm0-10.818A2.023 2.023 0 00.25 5.198h1.5c0-.29.234-.523.523-.523v-1.5zm0 1.5h1.909v-1.5h-1.91v1.5zm2.231-.073l6.012-2.863L9.871.385 3.86 3.248l.645 1.354zm-.322.073h7.636v-1.5H4.182v1.5zm7.636 0h.636v-1.5h-.636v1.5zm-1.46-3.006L11.1 4.14l1.437-.43-.742-2.472-1.437.431zm.158.07a.114.114 0 01-.158-.07l1.437-.43A1.386 1.386 0 009.871.384l.645 1.354zm3.423 9.716l1.591-1.59-1.06-1.061-1.591 1.59 1.06 1.061zm1.591-2.651l-1.59-1.591-1.061 1.06 1.59 1.591 1.061-1.06zm-5.303 1.28H15v-1.5h-4.773v1.5zm2.227-5.41c.082 0 .157.02.224.05l.644-1.354a2.017 2.017 0 00-.867-.195v1.5zm0 10.82c.444 0 .856-.144 1.19-.388l-.883-1.212a.518.518 0 01-.306.1v1.5z" fill="#000"/></svg>
